TO triangle
    PD
    LEFT 30
    FORWARD 25
    LEFT 120
    FORWARD 25
    PU LEFT 120 FORWARD 25 LEFT 90
END
TO house
    PD
    REPEAT 4 [ FORWARD 25 LEFT 90 ]
    PU FORWARD 25 PD
    triangle
    RIGHT 180
    FORWARD 25
    RIGHT 180
    PD
END
PU

FORWARD 100
FORWARD 100
RIGHT 90
FORWARD 100
RIGHT 180
REPEAT 4 [
    house
    PU
    LEFT 90
    FORWARD 50
    RIGHT 90
]
